X: 26187
T: McMahon's
R: hornpipe
M: 4/4
K: Gmajor
|:(3GFE|D>GB>G c>AB>G|D>GB>d g>fg>a|b>g (3ggg d>Gd>B|c2 (3BAG F>D (3cBA|
D2 B>G c2 B>G|D>G (3Bcd g2 (3fga|b>gd>g B>dG>d|(3cBA (3FGA G2:|
|:(3fga|b>g (3ggg a>g e2|g>Bg>d e2 (3Bcd|e>B (3B^AB e>Bg>B|e2 (3dcB A>G (3GFE|
D2 (3BAG c>A (3BAG|D2 (3Bcd g>f (3fga|b>gd>g B>dG>d|c>A (3FGA G2:|

